public/Stripe.svg

<svg width="80" height="48" viewBox="0 0 80 48" fill="none" xmlns="http://www.w3.org/2000/svg">
<path fill-rule="evenodd" clip-rule="evenodd" d="M79.3058 25.8169C79.3058 20.1774 76.5741 15.7274 71.3532 15.7274C66.1102 15.7274 62.938 20.1774 62.938 25.7728C62.938 32.4037 66.6829 35.7521 72.0581 35.7521C74.6796 35.7521 76.6622 35.1573 78.1602 34.3202V29.9143C76.6622 30.6633 74.9439 31.126 72.763 31.126C70.6262 31.126 68.7317 30.377 68.4893 27.7775H79.2617C79.2617 27.4911 79.3058 26.3456 79.3058 25.8169ZM68.4233 23.7241C68.4233 21.2348 69.9433 20.1994 71.3311 20.1994C72.6749 20.1994 74.1068 21.2348 74.1068 23.7241H68.4233Z" fill="#635BFF"/>
<path fill-rule="evenodd" clip-rule="evenodd" d="M54.4345 15.7274C52.2756 15.7274 50.8877 16.7408 50.1167 17.4457L49.8303 16.0799H44.9839V41.7661L50.4912 40.5986L50.5132 34.3643C51.3063 34.937 52.4739 35.7521 54.4124 35.7521C58.3557 35.7521 61.9465 32.5799 61.9465 25.5966C61.9244 19.2081 58.2896 15.7274 54.4345 15.7274ZM53.1127 30.9056C51.813 30.9056 51.0419 30.443 50.5132 29.8703L50.4912 21.6974C51.064 21.0585 51.857 20.6179 53.1127 20.6179C55.1174 20.6179 56.5052 22.8649 56.5052 25.7508C56.5052 28.7027 55.1394 30.9056 53.1127 30.9056Z" fill="#635BFF"/>
<path fill-rule="evenodd" clip-rule="evenodd" d="M37.4057 14.4277L42.935 13.2381V8.76611L37.4057 9.93367V14.4277Z" fill="#635BFF"/>
<path d="M42.935 16.1019H37.4057V35.3776H42.935V16.1019Z" fill="#635BFF"/>
<path fill-rule="evenodd" clip-rule="evenodd" d="M31.4795 17.7321L31.1271 16.1019H26.3687V35.3776H31.8761V22.3142C33.1758 20.6179 35.3787 20.9263 36.0616 21.1686V16.1019C35.3567 15.8375 32.7793 15.3529 31.4795 17.7321Z" fill="#635BFF"/>
<path fill-rule="evenodd" clip-rule="evenodd" d="M20.465 11.3215L15.0899 12.467L15.0679 30.1125C15.0679 33.3729 17.5131 35.7741 20.7735 35.7741C22.5799 35.7741 23.9016 35.4436 24.6286 35.0471V30.5751C23.9237 30.8615 20.443 31.8749 20.443 28.6145V20.7941H24.6286V16.1019H20.443L20.465 11.3215Z" fill="#635BFF"/>
<path fill-rule="evenodd" clip-rule="evenodd" d="M5.57342 21.6974C5.57342 20.8383 6.27836 20.5078 7.44592 20.5078C9.12015 20.5078 11.235 21.0145 12.9092 21.9177V16.7408C11.0808 16.0138 9.27435 15.7274 7.44592 15.7274C2.97396 15.7274 0 18.0626 0 21.9618C0 28.0418 8.37115 27.0726 8.37115 29.694C8.37115 30.7074 7.48998 31.0378 6.25633 31.0378C4.4279 31.0378 2.09279 30.2888 0.242322 29.2755V34.5185C2.29105 35.3996 4.36181 35.7742 6.25633 35.7742C10.8384 35.7742 13.9886 33.5051 13.9886 29.5619C13.9666 22.9971 5.57342 24.1647 5.57342 21.6974Z" fill="#635BFF"/>
</svg>

<svg width="80" height="48" fill="none" xmlns="http://www.w3.org/2000/svg"><path fill-rule="evenodd" clip-rule="evenodd" d="M79.306 25.817c0-5.64-2.732-10.09-7.953-10.09-5.243 0-8.415 4.45-8.415 10.046 0 6.63 3.745 9.98 9.12 9.98 2.622 0 4.604-.596 6.102-1.433v-4.406c-1.498.75-3.216 1.212-5.397 1.212-2.137 0-4.031-.749-4.274-3.349h10.773c0-.286.044-1.431.044-1.96Zm-10.883-2.093c0-2.49 1.52-3.525 2.908-3.525 1.344 0 2.776 1.036 2.776 3.525h-5.684Zm-13.989-7.997c-2.158 0-3.546 1.014-4.317 1.719l-.287-1.366h-4.846v25.686L50.49 40.6l.022-6.235c.793.573 1.96 1.388 3.9 1.388 3.943 0 7.534-3.172 7.534-10.155-.023-6.389-3.657-9.87-7.513-9.87Zm-1.321 15.179c-1.3 0-2.071-.463-2.6-1.036l-.022-8.173c.573-.639 1.366-1.08 2.622-1.08 2.004 0 3.392 2.248 3.392 5.134 0 2.952-1.366 5.155-3.392 5.155ZM37.406 14.428l5.529-1.19V8.766l-5.53 1.168v4.494Z" fill="#635BFF"/><path d="M42.935 16.102h-5.53v19.276h5.53V16.102Z" fill="#635BFF"/><path fill-rule="evenodd" clip-rule="evenodd" d="m31.48 17.732-.353-1.63H26.37v19.276h5.507V22.314c1.3-1.696 3.503-1.388 4.186-1.145v-5.067c-.705-.264-3.283-.75-4.582 1.63Zm-11.015-6.41-5.375 1.145-.022 17.645c0 3.26 2.445 5.662 5.705 5.662 1.807 0 3.129-.33 3.856-.727v-4.472c-.705.287-4.186 1.3-4.186-1.96v-7.82h4.186v-4.693h-4.186l.022-4.78ZM5.573 21.697c0-.859.705-1.19 1.873-1.19 1.674 0 3.789.508 5.463 1.41v-5.176c-1.828-.727-3.635-1.014-5.463-1.014C2.974 15.727 0 18.063 0 21.962c0 6.08 8.371 5.11 8.371 7.732 0 1.013-.881 1.344-2.115 1.344-1.828 0-4.163-.75-6.014-1.762v5.243a15.272 15.272 0 0 0 6.014 1.255c4.582 0 7.733-2.269 7.733-6.212-.022-6.565-8.416-5.397-8.416-7.865Z" fill="#635BFF"/></svg>
